X: 1
T: the Balkan Hills
R: shottish, hornpipe or reel
N: Bain 14, BSFC II-46
Z: 1997 by John Chambers <jc:trillian.mit.edu>
H: # This g is sometimes played sharp.
M: C|
L: 1/8
K: D
a>g |\
"D"f2 f>e d2A2 | "G" B>G d>B "D"A2 d>e |\
f2 f>a g>f e>d | "A7"f2e2 e2 a>g |
y6 |\
"D"f2 f>e d2A2 | "G" B>G d>B "D"A2 d>e |\
f>a "#" g>a "A7" g>e c>A | "D"d6 :|
|: f>g |\
"D" a>d f>a f2 e>d | "G" B>G d>B "D"A2 f>g |\
"D" a>d f>a g>f e>d | "A7"f2e2 e2 f>g |
y6 |\
"D" a>d f>a f2 e>d | "G" B>G d>B "D"A2 d>e |\
f>a "#" g>a "A7" g>e c>A | "D"d6 :|
|: A2 |\
"D"d2 d>e f2 e>d | "G" B>G d>B "D"A2 d>e |\
f2 f>a g>f e>d | "A7"f2e2 e2A2 |
y6 |\
"D"d2 d>e f2 e>d | "G" B>G d>B "D"A2 d>e |\
f>a "#" g>a "A7" g>e c>A | "D"d6 :|
|: f>g |\
"D" a>d f>a f>d f>a | f>d f>a f2 f>g |\
"D" a>d f>a g>f e>d | "A7"f2e2 e2 f>g |
y6 |\
"D" a>d f>a f2 e>d | "G" B>G d>B "D"A2 d>e |\
f>a "#" g>a "A7" g>e c>A | "D"d6 :|

